24x24/apps/frostwire.svg

<svg xmlns="http://www.w3.org/2000/svg" width="24" height="24" version="1">
 <rect style="opacity:0.2" width="20" height="20" x="2" y="2.5" rx="10" ry="10"/>
 <rect style="fill:#1a97d6" width="20" height="20" x="2" y="2" rx="10" ry="10"/>
 <path style="opacity:0.2" d="m 22.037109,9.4975539 a 0.49998097,0.49998097 0 0 0 -0.08008,0.00586 c 0,0 -0.717529,0.063871 -1.566406,0.2597657 -0.848877,0.1958948 -1.844963,0.4855884 -2.492187,1.1328114 -0.255652,0.255651 -0.497442,0.538975 -0.730469,0.820313 -0.465631,-0.54705 -0.900827,-1.06061 -1.558594,-1.205078 a 0.49998097,0.49998097 0 0 0 -0.105469,-0.01172 H 12.03125 a 0.49998097,0.49998097 0 0 0 -0.03516,0 H 8.4960938 A 0.49998097,0.49998097 0 0 0 8.390625,10.511225 C 7.7328574,10.655694 7.2976618,11.169253 6.8320312,11.716303 6.599004,11.434965 6.3572137,11.151641 6.1015625,10.89599 5.454338,10.248767 4.4582518,9.9590737 3.609375,9.7631789 2.7604982,9.5672841 2.0429688,9.5034133 2.0429688,9.5034132 a 0.49998097,0.49998097 0 0 0 -0.048828,-0.00391 0.49998097,0.49998097 0 0 0 -0.041016,0.9980458 c 0,0 0.6557418,0.06118 1.4316406,0.240234 0.7758989,0.179054 1.6571284,0.512597 2.0097656,0.865235 0.2594711,0.25947 0.5251455,0.572964 0.7910157,0.896484 -0.2658702,0.32352 -0.5315445,0.637013 -0.7910157,0.896484 -0.3526373,0.352637 -1.2338667,0.686181 -2.0097656,0.865235 -0.7758988,0.179053 -1.4316406,0.240234 -1.4316406,0.240234 a 0.49998097,0.49998097 0 1 0 0.089844,0.994141 c 0,0 0.7175294,-0.06387 1.5664062,-0.259766 0.8488766,-0.195895 1.8449629,-0.485588 2.4921875,-1.132812 0.2556511,-0.255651 0.4974415,-0.538975 0.7304687,-0.820313 0.4656305,0.54705 0.9008262,1.060609 1.5585938,1.205078 a 0.49998097,0.49998097 0 0 0 0.1054688,0.01172 h 3.4726562 0.02734 a 0.49998097,0.49998097 0 0 0 0.0078,0 h 3.5 a 0.49998097,0.49998097 0 0 0 0.105469,-0.01172 c 0.657767,-0.144469 1.092963,-0.658028 1.558594,-1.205078 0.233027,0.281338 0.474817,0.564662 0.730469,0.820313 0.647224,0.647224 1.64331,0.936917 2.492187,1.132812 0.848877,0.195895 1.566406,0.259766 1.566406,0.259766 a 0.49998097,0.49998097 0 1 0 0.08984,-0.994141 c 0,0 -0.655742,-0.06118 -1.431641,-0.240234 -0.775878,-0.179054 -1.657128,-0.512598 -2.009765,-0.865235 -0.259471,-0.259471 -0.525146,-0.572964 -0.791016,-0.896484 0.26587,-0.32352 0.531545,-0.637014 0.791016,-0.896484 0.352637,-0.352638 1.233867,-0.686181 2.009765,-0.865235 0.775899,-0.179053 1.431641,-0.240234 1.431641,-0.240234 a 0.50002396,0.50002396 0 0 0 -0.0098,-0.9999989 z M 8.5898438,11.499506 h 3.3789062 0.02734 a 0.49998097,0.49998097 0 0 0 0.0078,0 h 3.40625 c 0.15897,0.04141 0.582819,0.375494 1.021485,0.890625 0.02859,0.03357 0.06092,0.07478 0.08984,0.109375 -0.02892,0.03459 -0.06125,0.0758 -0.08984,0.109375 -0.438654,0.515132 -0.862515,0.849213 -1.021485,0.890625 h -3.37889 a 0.49998097,0.49998097 0 0 0 -0.02734,0 0.49998097,0.49998097 0 0 0 -0.0078,0 H 8.5898438 c -0.1589694,-0.04141 -0.5828185,-0.375493 -1.0214844,-0.890625 -0.028589,-0.03357 -0.06092,-0.07478 -0.089844,-0.109375 0.028924,-0.03459 0.061255,-0.0758 0.089844,-0.109375 C 8.0070253,11.875 8.4308743,11.540917 8.5898438,11.499506 Z"/>
 <path style="opacity:0.2;fill:#f4f4f7" d="M 12.000173,2 C 6.4601732,2 2.0001732,6.46 2.0001732,12 c 0,0.084 -0.002,0.1665 0,0.25 0.1322,-5.423 4.544,-9.75 9.9999998,-9.75 5.456,0 9.868,4.327 10,9.75 0.002,-0.0835 0,-0.166 0,-0.25 0,-5.54 -4.46,-10 -10,-10 z"/>
 <path style="fill:#c1eaff" d="M 22.037109 8.9980469 A 0.49998097 0.49998097 0 0 0 21.957031 9.0039062 C 21.957031 9.0039062 21.239502 9.0677772 20.390625 9.2636719 C 19.541748 9.4595667 18.545662 9.7492603 17.898438 10.396484 C 17.642786 10.652135 17.400996 10.935459 17.167969 11.216797 C 16.702338 10.669747 16.267142 10.156187 15.609375 10.011719 A 0.49998097 0.49998097 0 0 0 15.503906 10 L 12.03125 10 A 0.49998097 0.49998097 0 0 0 11.996094 10 L 8.4960938 10 A 0.49998097 0.49998097 0 0 0 8.390625 10.011719 C 7.7328574 10.156188 7.2976618 10.669747 6.8320312 11.216797 C 6.599004 10.935459 6.3572137 10.652135 6.1015625 10.396484 C 5.454338 9.7492602 4.4582518 9.4595667 3.609375 9.2636719 C 2.7604982 9.0677771 2.0429688 9.0039063 2.0429688 9.0039062 A 0.49998097 0.49998097 0 0 0 1.9941406 9 A 0.49998097 0.49998097 0 0 0 1.953125 9.9980469 C 1.953125 9.9980469 2.6088668 10.059228 3.3847656 10.238281 C 4.1606645 10.417335 5.041894 10.750878 5.3945312 11.103516 C 5.6540023 11.362986 5.9196767 11.67648 6.1855469 12 C 5.9196767 12.32352 5.6540024 12.637013 5.3945312 12.896484 C 5.0418939 13.249121 4.1606645 13.582665 3.3847656 13.761719 C 2.6088668 13.940772 1.953125 14.001953 1.953125 14.001953 A 0.49998097 0.49998097 0 1 0 2.0429688 14.996094 C 2.0429688 14.996094 2.7604982 14.932224 3.609375 14.736328 C 4.4582516 14.540433 5.4543379 14.25074 6.1015625 13.603516 C 6.3572136 13.347865 6.599004 13.064541 6.8320312 12.783203 C 7.2976617 13.330253 7.7328574 13.843812 8.390625 13.988281 A 0.49998097 0.49998097 0 0 0 8.4960938 14 L 11.96875 14 L 11.996094 14 A 0.49998097 0.49998097 0 0 0 12.003906 14 L 15.503906 14 A 0.49998097 0.49998097 0 0 0 15.609375 13.988281 C 16.267142 13.843812 16.702338 13.330253 17.167969 12.783203 C 17.400996 13.064541 17.642786 13.347865 17.898438 13.603516 C 18.545662 14.25074 19.541748 14.540433 20.390625 14.736328 C 21.239502 14.932223 21.957031 14.996094 21.957031 14.996094 A 0.49998097 0.49998097 0 1 0 22.046875 14.001953 C 22.046875 14.001953 21.391133 13.940773 20.615234 13.761719 C 19.839356 13.582665 18.958106 13.249121 18.605469 12.896484 C 18.345998 12.637013 18.080323 12.32352 17.814453 12 C 18.080323 11.67648 18.345998 11.362986 18.605469 11.103516 C 18.958106 10.750878 19.839336 10.417335 20.615234 10.238281 C 21.391133 10.059228 22.046875 9.9980469 22.046875 9.9980469 A 0.49998097 0.49998097 0 0 0 22.037109 8.9980469 z M 8.5898438 11 L 11.96875 11 L 11.996094 11 A 0.49998097 0.49998097 0 0 0 12.003906 11 L 15.410156 11 C 15.569126 11.04141 15.992975 11.375494 16.431641 11.890625 C 16.46023 11.924198 16.49256 11.965407 16.521484 12 C 16.49256 12.034593 16.46023 12.075802 16.431641 12.109375 C 15.992987 12.624507 15.569126 12.958588 15.410156 13 L 12.03125 13 A 0.49998097 0.49998097 0 0 0 12.003906 13 A 0.49998097 0.49998097 0 0 0 11.996094 13 L 8.5898438 13 C 8.4308744 12.958589 8.0070253 12.624507 7.5683594 12.109375 C 7.5397701 12.075802 7.5074399 12.034593 7.4785156 12 C 7.5074399 11.965407 7.5397701 11.924198 7.5683594 11.890625 C 8.0070253 11.375494 8.4308743 11.041411 8.5898438 11 z"/>
 <path style="fill:#f4f4f7" d="M 7.9980469,5.9902344 C 7.6184507,5.9823692 7.3679349,6.3837783 7.5429688,6.7207031 L 9.1835938,10 H 10.300781 L 8.4375,6.2734375 C 8.3557998,6.1035726 8.1864991,5.9940816 7.9980469,5.9902344 Z m 7.9941411,0 C 15.791404,5.9905398 15.6093,6.1118842 15.53125,6.296875 l -3.5,8 c -0.26583,0.610643 0.649708,1.00997 0.917969,0.400391 l 3.5,-8.0000004 C 16.600097,6.3654553 16.356687,5.9888999 15.992188,5.9902344 Z m -4.5,3 C 11.291404,8.9905398 11.1093,9.1118842 11.03125,9.296875 l -3.5,8 c -0.2660444,0.610728 0.6497917,1.010185 0.9179688,0.400391 L 11.949219,9.6972656 C 12.100097,9.3654553 11.856687,8.9888999 11.492188,8.9902344 Z m 1.482421,0 c -0.200423,0.00703 -0.377257,0.1331214 -0.449218,0.3203125 l -2,5.0000001 c -0.248047,0.61914 0.68164,0.992187 0.929687,0.373047 l 2,-5.0000002 C 13.595612,9.3469947 13.33913,8.977071 12.974609,8.9902344 Z m -2.605468,1.3749996 -0.02734,0.04687 c 0.0019,8.19e-4 0.004,0.0011 0.0059,0.002 z M 13.455078,14 l 2.097656,3.740234 c 0.316322,0.60739 1.22337,0.103266 0.875,-0.486328 L 14.599609,14 Z"/>
 <path style="opacity:0.2" d="M 7.5566406 6.7460938 C 7.4775808 6.8850678 7.4590446 7.0591566 7.5429688 7.2207031 L 8.9335938 10 L 9.1835938 10 L 7.5566406 6.7460938 z M 16.425781 6.7519531 L 12.949219 14.697266 C 12.756903 15.134272 12.238574 15.048353 12.054688 14.742188 L 12.03125 14.796875 C 11.76542 15.407518 12.680958 15.806845 12.949219 15.197266 L 13.464844 14.017578 L 13.455078 14 L 13.472656 14 L 16.449219 7.1972656 C 16.519116 7.0435477 16.497964 6.8828561 16.425781 6.7519531 z M 11.925781 9.7519531 L 8.4492188 17.697266 C 8.256963 18.134426 7.7385782 18.048411 7.5546875 17.742188 L 7.53125 17.796875 C 7.2652056 18.407603 8.1810417 18.80706 8.4492188 18.197266 L 11.949219 10.197266 C 12.019116 10.043548 11.997964 9.882856 11.925781 9.7519531 z M 13.425781 9.7597656 L 11.455078 14.683594 C 11.274865 15.133416 10.73949 15.055633 10.552734 14.744141 L 10.525391 14.810547 C 10.277344 15.429687 11.207031 15.802734 11.455078 15.183594 L 13.455078 10.183594 C 13.516827 10.035697 13.492814 9.8852063 13.425781 9.7597656 z M 13.455078 14.5 L 15.552734 18.240234 C 15.868737 18.847011 16.773223 18.344685 16.427734 17.755859 C 16.246215 18.047198 15.767533 18.152683 15.552734 17.740234 L 13.736328 14.5 L 13.455078 14.5 z"/>
</svg>

<svg xmlns="http://www.w3.org/2000/svg" width="24" height="24" version="1"><rect style="opacity:.2" width="20" height="20" x="2" y="2.5" rx="10" ry="10"/><rect style="fill:#1a97d6" width="20" height="20" x="2" y="2" rx="10" ry="10"/><path style="opacity:.2" d="M22.037 9.498a.5.5 0 0 0-.08.005s-.717.064-1.566.26c-.85.196-1.845.486-2.493 1.133-.255.256-.497.539-.73.82-.466-.547-.9-1.06-1.559-1.205a.5.5 0 0 0-.105-.011H12.03a.5.5 0 0 0-.035 0h-3.5a.5.5 0 0 0-.105.011c-.658.145-1.093.658-1.559 1.205a11.842 11.842 0 0 0-.73-.82c-.648-.647-1.644-.937-2.493-1.133-.849-.196-1.566-.26-1.566-.26a.5.5 0 0 0-.049-.003.5.5 0 0 0-.04.998s.655.06 1.43.24c.777.179 1.658.512 2.01.865.26.26.526.573.792.897-.266.323-.532.637-.791.896-.353.353-1.234.686-2.01.865-.776.18-1.432.24-1.432.24a.5.5 0 1 0 .09.995s.717-.064 1.566-.26c.85-.196 1.845-.486 2.493-1.133.255-.256.497-.539.73-.82.466.547.9 1.06 1.559 1.205a.5.5 0 0 0 .105.012h3.5a.5.5 0 0 0 .008 0h3.5a.5.5 0 0 0 .105-.012c.658-.145 1.093-.658 1.559-1.205.233.281.475.564.73.82.648.647 1.644.937 2.493 1.133.848.196 1.566.26 1.566.26a.5.5 0 1 0 .09-.995s-.656-.06-1.432-.24c-.776-.179-1.657-.512-2.01-.865-.259-.26-.525-.573-.79-.896.265-.324.531-.638.79-.897.353-.353 1.234-.686 2.01-.865.776-.18 1.432-.24 1.432-.24a.5.5 0 0 0-.01-1zM8.59 11.5h3.406a.5.5 0 0 0 .008 0h3.406c.16.04.583.375 1.022.89.028.034.06.075.09.11-.03.034-.062.075-.09.109-.439.515-.863.85-1.022.89h-3.379a.5.5 0 0 0-.027 0 .5.5 0 0 0-.008 0H8.59c-.16-.04-.583-.375-1.022-.89-.028-.034-.06-.075-.09-.11.03-.034.062-.075.09-.109.439-.515.863-.85 1.022-.89z"/><path style="opacity:.2;fill:#f4f4f7" d="M12 2C6.46 2 2 6.46 2 12c0 .084-.002.167 0 .25A9.98 9.98 0 0 1 12 2.5a9.98 9.98 0 0 1 10 9.75c.002-.084 0-.166 0-.25 0-5.54-4.46-10-10-10z"/><path style="fill:#c1eaff" d="M22.037 8.998a.5.5 0 0 0-.08.006s-.717.064-1.566.26c-.85.196-1.845.485-2.493 1.132-.255.256-.497.54-.73.82-.466-.546-.9-1.06-1.559-1.204a.5.5 0 0 0-.105-.012H12.03a.5.5 0 0 0-.035 0h-3.5a.5.5 0 0 0-.105.012c-.658.144-1.093.658-1.559 1.205a11.842 11.842 0 0 0-.73-.82c-.648-.648-1.644-.937-2.493-1.133-.849-.196-1.566-.26-1.566-.26A.5.5 0 0 0 1.994 9a.5.5 0 0 0-.04.998s.655.061 1.43.24c.777.18 1.658.513 2.01.866.26.259.526.572.792.896-.266.324-.532.637-.791.896-.353.353-1.234.687-2.01.866-.776.179-1.432.24-1.432.24a.5.5 0 1 0 .09.994s.717-.064 1.566-.26c.85-.196 1.845-.485 2.493-1.132.255-.256.497-.54.73-.82.466.546.9 1.06 1.559 1.204a.5.5 0 0 0 .105.012h3.5a.5.5 0 0 0 .008 0h3.5a.5.5 0 0 0 .105-.012c.658-.144 1.093-.658 1.559-1.205.233.282.475.565.73.82.648.648 1.644.937 2.493 1.133.849.196 1.566.26 1.566.26a.5.5 0 1 0 .09-.994s-.656-.061-1.432-.24c-.776-.18-1.657-.513-2.01-.866-.259-.259-.525-.572-.79-.896.265-.324.531-.637.79-.896.353-.353 1.234-.687 2.01-.866.776-.179 1.432-.24 1.432-.24a.5.5 0 0 0-.01-1zM8.59 11h3.406a.5.5 0 0 0 .008 0h3.406c.16.041.583.375 1.022.89.028.034.06.075.09.11-.03.035-.062.076-.09.11-.439.515-.863.849-1.022.89h-3.379a.5.5 0 0 0-.027 0 .5.5 0 0 0-.008 0H8.59c-.16-.041-.583-.375-1.022-.89-.028-.034-.06-.075-.09-.11.03-.035.062-.076.09-.11.439-.515.863-.849 1.022-.89z"/><path style="fill:#f4f4f7" d="M7.998 5.99a.5.5 0 0 0-.455.73L9.183 10h1.118L8.437 6.273a.499.499 0 0 0-.439-.283zm7.994 0c-.2 0-.383.122-.46.307l-3.5 8c-.267.61.649 1.01.917.4l3.5-8a.5.5 0 0 0-.457-.707zm-4.5 3c-.2 0-.383.122-.46.307l-3.5 8c-.267.61.649 1.01.917.4l3.5-8a.5.5 0 0 0-.457-.707zm1.483 0a.5.5 0 0 0-.45.32l-2 5c-.248.62.682.993.93.374l2-5a.501.501 0 0 0-.48-.694zm-2.606 1.375-.027.047.006.002zM13.455 14l2.098 3.74c.316.608 1.223.104.875-.486L14.6 14z"/><path style="opacity:.2" d="M7.557 6.746a.49.49 0 0 0-.014.475L8.933 10h.25L7.558 6.746zm8.869.006-3.477 7.945c-.192.437-.71.351-.894.045l-.024.055c-.266.61.65 1.01.918.4l.516-1.18-.01-.017h.018l2.976-6.803a.49.49 0 0 0-.023-.445zm-4.5 3-3.477 7.945c-.192.437-.71.351-.894.045l-.024.055c-.266.61.65 1.01.918.4l3.5-8a.49.49 0 0 0-.023-.445zm1.5.008-1.97 4.924c-.181.45-.717.372-.903.06l-.028.067c-.248.619.682.992.93.373l2-5a.487.487 0 0 0-.03-.424zm.03 4.74 2.097 3.74c.316.607 1.22.105.875-.484-.182.291-.66.397-.875-.016l-1.817-3.24h-.28z"/></svg>
